X:401
T:Banshee, The
R:reel
C:Traditional
M:C|
K:G
|: G2GD EDB,D | GFGB (3ddd Bd | eeed BAGA | BAGE EDDE |
 (3GGG GD EDB,D | GFGB (3ddd Bd | eeed BAGA | BAGE EDD2 :|
|: eaag efge | dBBA (3BBB Bd | eB (3BBB gBfB | eBBA (3BBB Bd |
 eaag efge | dBBA (3BBB Bd | eeed BAGA | BAGE EDD2 :|

